icons/gis-server-16.svg

<?xml version="1.0" encoding="UTF-8"?><svg id="icons" xmlns="http://www.w3.org/2000/svg" viewBox="0 0 16 16"><path d="M3,3h1v1h-1v-1Zm2,1h1v-1h-1v1Zm2,0h1v-1h-1v1ZM15,1V7.82996l-1-.56v-1.26996H2v3h6.15997c-.21161,.3386-.20108,.7181-.03998,1H1V1H15Zm-1,1H2v3H14V2ZM4,7h-1v1h1v-1Zm2,0h-1v1h1v-1Zm2,0h-1v1h1v-1Zm4.49985,1.63086l-1.48985,.86911,1.48985,.86914,1.49001-.86914-1.49001-.86911m-.00003-1.15768l3.47475,2.02679-3.47475,2.02686-3.47438-2.02686,3.47438-2.02679h0Zm0,5.05362l-2.61725-1.52686-.85712,.5,3.47437,2.02686,3.47473-2.02686-.85718-.5-2.61755,1.52686Zm0,2l-2.61725-1.52686-.85712,.5,3.47437,2.02686,3.47473-2.02686-.85718-.5-2.61755,1.52686Z"/><path fill="none" d="M0 0h16v16H0z"/></svg>

<svg xmlns="http://www.w3.org/2000/svg" viewBox="0 0 16 16"><path d="M3 3h1v1H3V3zm2 1h1V3H5v1zm2 0h1V3H7v1zm8-3v6.83l-1-.56V6H2v3h6.16a.97.97 0 0 0-.04 1H1V1h14zm-1 1H2v3h12V2zM4 7H3v1h1V7zm2 0H5v1h1V7zm2 0H7v1h1V7zm4.5 1.63l-1.49.87 1.49.87 1.49-.87-1.49-.87m0-1.157L15.975 9.5 12.5 11.527 9.025 9.5 12.5 7.473zm0 5.054L9.883 11l-.858.5 3.475 2.027 3.475-2.027-.858-.5-2.617 1.527zm0 2L9.883 13l-.858.5 3.475 2.027 3.475-2.027-.858-.5-2.617 1.527z"/><path fill="none" d="M0 0h16v16H0z"/></svg>
